src/assets/icons/letters,simple,sans-o.svg

<svg width="48" height="48" viewBox="0 0 48 48" fill="none" xmlns="http://www.w3.org/2000/svg">
<rect opacity="0.2" x="5" y="5" width="38" height="38" rx="4" fill="black"/>
<path d="M34.553 24.7273C34.553 17.3516 29.9735 13.1463 23.9959 13.1463C17.9852 13.1463 13.4387 17.3516 13.4387 24.7273C13.4387 32.07 17.9852 36.3082 23.9959 36.3082C29.9735 36.3082 34.553 32.103 34.553 24.7273ZM29.7203 24.7273C29.7203 29.505 27.4525 32.092 23.9959 32.092C20.5282 32.092 18.2714 29.505 18.2714 24.7273C18.2714 19.9496 20.5282 17.3626 23.9959 17.3626C27.4525 17.3626 29.7203 19.9496 29.7203 24.7273Z" fill="black"/>
</svg>

<svg xmlns="http://www.w3.org/2000/svg" width="48" height="48" fill="none" viewBox="0 0 48 48">
  <rect width="38" height="38" x="5" y="5" fill="#000" opacity=".2" rx="4"/>
  <path fill="#000" d="M34.553 24.727c0-7.375-4.58-11.58-10.557-11.58-6.01 0-10.557 4.205-10.557 11.58 0 7.343 4.546 11.581 10.557 11.581 5.978 0 10.557-4.205 10.557-11.58zm-4.833 0c0 4.778-2.267 7.365-5.724 7.365-3.468 0-5.725-2.587-5.725-7.365 0-4.777 2.257-7.364 5.725-7.364 3.457 0 5.724 2.587 5.724 7.364z"/>
</svg>
